X:1
T:Allan More
M:C
L:1/8
R:Pipe Reel
B:William Ross -- Ross's Collection of Pipe Music (1869, No. 136, p. 109)
Z:AK/Fiddler's Companion
K:Amix
e|A<A c2 eAcA|B<B g2 fgBG|A<A c2 eAAa|gedB eA A:|
|:e|A<A g2 aefd|BcdB g2 dB|A<A g2 aefd|gedB eA A:|]

